X:40
T:Wood of Fyvie
M:C|
K:AMix
f    |eATcA        Bcdf|eATcA eATce|dBTcA        Bcd(f|e)f/^g/   ac Te2A:|
f/^g/|a/^g/f/e/ ac Bcdf|eaca  ecac |f/^g/a/f/ ec Bcdf |e/f/^g/e/ ac Te2A:|

% @@@@@@@@@@@@@@@@@@@@@@@@@@@@@@@@@@

%% 41. ===============================================================================

% @WHAT MEIKLE SORROW@
%     ^Ails You.^
%
% *FIRST Man cast off, his Partner at the same time following to the 2d Couple's place
% improper.  First Woman cast off, the Man following to the 3d Couple's place proper.
% *First Couple lead up to the top, and cast off.  Lead down thro' 3d Couple and cast up.
% *SETT across and turn.  *Lead out at the Sides.

% @@@@@@@@@@@@@@@@@@@@@@@@@@@@@@@@@@

